packages/foundations/assets/icons/functional/images/transportation/scooter_14.svg

<svg width="14" height="14" viewBox="0 0 14 14" fill="none" xmlns="http://www.w3.org/2000/svg">
<g clip-path="url(#clip0_187_940)">
<path fill-rule="evenodd" clip-rule="evenodd" d="M10.3448 2.80438C11.1881 2.80438 11.8965 3.57669 11.8965 4.36376L11.8999 6.29556C11.8999 6.44949 11.8492 6.59822 11.7571 6.7194L8.90272 9.60445C8.7932 9.71483 8.68058 9.79556 8.40584 9.79556C8.22267 9.79556 7.28856 9.79556 5.60351 9.79556C5.5948 10.5613 4.95269 11.1956 4.19995 11.1956C3.4472 11.1956 2.79995 10.5761 2.80437 9.79556H2.10009C1.72051 9.79556 1.40479 9.52494 1.40479 9.09718L1.40009 8.17806C1.40009 6.80631 2.47642 5.68582 3.83059 5.61495L5.35089 5.61138L5.16175 4.89416L3.49282 4.89456C3.07534 4.89416 2.79995 4.55354 2.79995 4.19456C2.79995 3.83557 3.06185 3.50438 3.49282 3.49456H5.31265C5.79659 3.49456 6.288 3.86629 6.45625 4.32741L7.53825 8.41096H8.11435L10.4992 6.00716L10.4999 4.47605C10.4999 4.32741 10.4614 4.19456 10.2723 4.19456L9.10487 4.18834C8.71827 4.18834 8.40584 3.88116 8.40584 3.49456C8.40584 3.13557 8.63218 2.80438 9.10487 2.80438H10.3448ZM11.1999 8.39557C11.9731 8.39557 12.5999 9.02237 12.5999 9.79556C12.5999 10.5688 11.9731 11.1956 11.1999 11.1956C10.4267 11.1956 9.79995 10.5688 9.79995 9.79556C9.79995 9.02237 10.4267 8.39557 11.1999 8.39557ZM5.72484 6.99997L3.97127 6.99999C3.36081 6.99999 2.79995 7.58704 2.80437 8.07741C2.80142 8.17393 2.79995 8.28512 2.79995 8.41096L6.09009 8.41138L5.72484 6.99997Z" fill="#1A1C1F"/>
</g>
<defs>
<clipPath id="clip0_187_940">
<rect width="14" height="14" fill="white"/>
</clipPath>
</defs>
</svg>

<svg xmlns="http://www.w3.org/2000/svg" width="14" height="14" fill="none"><g clip-path="url(#a)"><path fill="#1A1C1F" fill-rule="evenodd" d="M10.345 2.804c.843 0 1.551.773 1.551 1.56l.004 1.932a.7.7 0 0 1-.143.423L8.903 9.604c-.11.11-.222.192-.497.192H5.604c-.01.765-.651 1.4-1.404 1.4s-1.4-.62-1.396-1.4H2.1a.674.674 0 0 1-.695-.699L1.4 8.178a2.567 2.567 0 0 1 2.43-2.563l1.52-.004-.188-.717h-1.67a.69.69 0 0 1-.692-.7c0-.358.262-.69.693-.7h1.82c.484 0 .975.372 1.143.833l1.082 4.084h.576L10.5 6.007v-1.53c0-.15-.038-.282-.227-.282l-1.167-.007a.694.694 0 0 1-.7-.693c0-.36.227-.69.7-.69zm.855 5.592a1.4 1.4 0 1 1 0 2.8 1.4 1.4 0 0 1 0-2.8M5.725 7H3.97c-.61 0-1.171.587-1.167 1.077q-.004.145-.004.334h3.29z" clip-rule="evenodd"/></g><defs><clipPath id="a"><path fill="#fff" d="M0 0h14v14H0z"/></clipPath></defs></svg>
